icon_installer/data/icons/scalable/actions/show-tv-symbolic.svg

<?xml version="1.0" encoding="UTF-8"?>
<svg height="16px" viewBox="0 0 16 16" width="16px" xmlns="http://www.w3.org/2000/svg">
    <path d="m 5 0 c -0.550781 0 -1 0.449219 -1 1 s 0.449219 1 1 1 c 0.085938 0 0.167969 -0.011719 0.25 -0.03125 l 1.019531 1.03125 h -2.269531 c -1.660156 0 -3 1.339844 -3 3 v 7 c 0 1.660156 1.339844 3 3 3 h 8 c 1.660156 0 3 -1.339844 3 -3 v -7 c 0 -1.660156 -1.339844 -3 -3 -3 h -2.261719 l 1.011719 -1.03125 c 0.078125 0.019531 0.15625 0.03125 0.238281 0.03125 c 0.550781 0 1 -0.449219 1 -1 s -0.449219 -1 -1 -1 s -1 0.449219 -1 1 c 0 0.09375 0.015625 0.1875 0.039063 0.277344 l -1.683594 1.710937 l -0.667969 0.011719 l -1.714843 -1.734375 c 0.027343 -0.085937 0.039062 -0.175781 0.039062 -0.265625 c 0 -0.550781 -0.449219 -1 -1 -1 z m -0.5 4 h 2.757812 l 0.007813 0.007812 l 0.375 -0.007812 h 3.859375 s 1.5 1 1.5 4 s -1.5 4 -1.5 4 h -7 s -1.5 -1 -1.5 -4 s 1.5 -4 1.5 -4 z m 6.5 10 h 1 v 1 h -1 z m 0 0" fill="#222222"/>
</svg>

<svg xmlns="http://www.w3.org/2000/svg" width="16" height="16"><path fill="#222" d="M5 0c-.55 0-1 .45-1 1a1.002 1.002 0 0 0 1.25.969L6.27 3H4C2.34 3 1 4.34 1 6v7c0 1.66 1.34 3 3 3h8c1.66 0 3-1.34 3-3V6c0-1.66-1.34-3-3-3H9.738l1.012-1.031c.078.02.156.031.238.031.551 0 1-.45 1-1s-.449-1-1-1a1.002 1.002 0 0 0-.96 1.277L8.343 2.988 7.676 3 5.96 1.266A.875.875 0 0 0 6 1c0-.55-.45-1-1-1zm-.5 4h2.758l.008.008L7.64 4h3.86S13 5 13 8s-1.5 4-1.5 4h-7S3 11 3 8s1.5-4 1.5-4zM11 14h1v1h-1zm0 0"/></svg>
